X: 1
T: Fire in the Log
T: Who Shit in Grandpa's Hat
T: Possum up the Gum Stump
C: Jimmy Wheeler (1917-1987)
R: reel
Z: 2020 John Chambers <jc:trillian.mit.edu>
S: https://www.facebook.com/groups/Fiddletuneoftheday/ 2020-8-6
S: https://www.facebook.com/groups/Fiddletuneoftheday/photos/
M: C|
L: 1/8
K: D
fg |\
ga2a- abag | ef2g f2A2- | A2d2 fdf2 | ce2f e2ef |
g2gf gagf | efgf edcB | ABcB AGFE | F3F- [A2F2]ff |
fa2a- abag | ef2g f2A2- | A2d2 fdf2 | ce2f | e2ef |
g2gf gagf efgf edcB | ABcB AGFE | D3E D2 FF ||
|:\
FA2A- ABAG | FED2- DDFE | DFED EDEF | G2 G6 |
e3e- efed | cBA2- AAcB | ABcB AGFE |1 F3F- [A2F2]FF :|2 D3E D2 |]
